X:2977
T:Menuetti
C:anon.
O:Finland
R:Minuet
Z:Transcribed by Frank Nordberg - http://www.musicaviva.com
F:http://abc.musicaviva.com/tunes/finland/menuetti.abc
M:3/4
L:1/8
K:Ddor
A>d d(d/^c/) (d/e/)f|^c>e ee ee|f/e/a/g/ ~fe/d/ d/^c/e/c/|[1AA/F/ AA AA:|
[2d>d dd d2|:f/g/f/e/ d/e/f/g/ aa/g/|ba g/a/g/e/ c(e/f/)|g(g/f/) af/e/ fd|
df e/d/^c/d/ ee|f/e/a/g/ ~fe/d/ d/^c/e/c/|[1A>A AA A2:|[2d>d dd d2|]
W:
W:
W:  From Musica Viva - http://www.musicaviva.com
W:  the Internet center for free sheet music downloads.
